X: 26989
T: Miss Eireann MacInnis
R: reel
M: 4/4
K: Amixolydian
|:A2 ed e2 e2|edef gf e2|dedB BB d2|dGBd edBG|
A2 ed e2 e2|edef gf e2|degd edBd|egBd eA A2:|
|:agea ge a2|aeag agef|gage gd d2|gafg edfg|
agea ge a2|aeag agef|gage gdda|gedB eA A2:|

